public/library/mirror-world-icon-light.svg

<svg xmlns="http://www.w3.org/2000/svg" width="500" height="500" fill="none" viewBox="0 0 500 500"><g clip-path="url(#a)"><circle cx="250" cy="250" r="250" fill="#dcff1c"/><path fill="#000" d="m174 177.9 34.16 22.91 18.73 12.56a43 43 0 0 0 48 0l104.23-70a5.8 5.8 0 0 0 2.11-7 43.51 43.51 0 0 0-27.617-24.974 43.52 43.52 0 0 0-36.823 5.524l-60.37 40.49a10 10 0 0 1-11.09 0L185 116.92a43.53 43.53 0 0 0-39.188-4.785A43.52 43.52 0 0 0 118.88 141L174 177.92z"/><path fill="#000" d="m123.08 322.09 30-20.89A48.67 48.67 0 0 0 174 261.26v-83.34L118.88 141a43.6 43.6 0 0 0-1.7 12v166a3.76 3.76 0 0 0 5.9 3.09M376.92 177.91l-30 20.89a48.654 48.654 0 0 0-20.86 39.94v83.34L381.12 359a43.6 43.6 0 0 0 1.7-12.05V181a3.752 3.752 0 0 0-2.016-3.329 3.76 3.76 0 0 0-3.884.239M326.05 322.1l-34.16-22.91-18.73-12.56a43 43 0 0 0-48 0l-104.23 70a5.8 5.8 0 0 0-2.11 7 43.526 43.526 0 0 0 64.44 19.45l60.37-40.49a10.005 10.005 0 0 1 11.09 0l60.37 40.49a43.54 43.54 0 0 0 18.999 7.048 43.53 43.53 0 0 0 37.03-13.504A43.5 43.5 0 0 0 381.12 359z"/></g><defs><clipPath id="a"><path fill="#fff" d="M0 0h500v500H0z"/></clipPath></defs></svg>

<svg width="500" height="500" viewBox="0 0 500 500" fill="none" xmlns="http://www.w3.org/2000/svg">
<g clip-path="url(#clip0_48284_71589)">
<circle cx="250" cy="250" r="250" fill="#DCFF1C"/>
<path d="M174 177.9L208.16 200.81L226.89 213.37C233.984 218.142 242.34 220.691 250.89 220.691C259.44 220.691 267.796 218.142 274.89 213.37L379.12 143.37C380.222 142.623 381.032 141.519 381.417 140.244C381.801 138.97 381.735 137.602 381.23 136.37C378.761 130.423 375.003 125.099 370.227 120.78C365.451 116.462 359.777 113.256 353.613 111.396C347.448 109.535 340.948 109.066 334.581 110.021C328.213 110.976 322.137 113.333 316.79 116.92L256.42 157.41C254.778 158.504 252.848 159.088 250.875 159.088C248.901 159.088 246.972 158.504 245.33 157.41L185 116.92C179.308 113.09 172.79 110.66 165.98 109.828C159.17 108.997 152.259 109.787 145.812 112.135C139.366 114.483 133.565 118.321 128.885 123.338C124.204 128.354 120.776 134.406 118.88 141L174 177.92V177.9Z" fill="black"/>
<path d="M123.08 322.09L153.08 301.2C159.53 296.724 164.802 290.754 168.445 283.799C172.088 276.844 173.993 269.111 174 261.26V177.92L118.88 141C117.757 144.901 117.185 148.94 117.18 153V319C117.18 319.686 117.368 320.359 117.723 320.946C118.078 321.533 118.588 322.011 119.195 322.329C119.803 322.647 120.486 322.793 121.171 322.751C121.856 322.709 122.516 322.48 123.08 322.09V322.09Z" fill="black"/>
<path d="M376.92 177.91L346.92 198.8C340.48 203.282 335.22 209.255 331.588 216.21C327.956 223.164 326.059 230.894 326.06 238.74V322.08L381.12 359C382.247 355.083 382.819 351.026 382.82 346.95V181C382.819 180.314 382.631 179.641 382.276 179.054C381.921 178.467 381.412 177.989 380.804 177.671C380.196 177.352 379.513 177.207 378.828 177.249C378.144 177.291 377.484 177.52 376.92 177.91V177.91Z" fill="black"/>
<path d="M326.05 322.1L291.89 299.19L273.16 286.63C266.066 281.858 257.71 279.309 249.16 279.309C240.61 279.309 232.255 281.858 225.16 286.63L120.93 356.63C119.829 357.377 119.018 358.481 118.634 359.756C118.249 361.03 118.315 362.398 118.82 363.63C121.29 369.577 125.048 374.901 129.823 379.22C134.599 383.538 140.274 386.744 146.438 388.604C152.602 390.465 159.102 390.934 165.47 389.979C171.837 389.024 177.913 386.667 183.26 383.08L243.63 342.59C245.273 341.496 247.202 340.912 249.175 340.912C251.149 340.912 253.078 341.496 254.72 342.59L315.09 383.08C320.781 386.891 327.29 389.306 334.089 390.128C340.889 390.949 347.786 390.154 354.22 387.808C360.655 385.462 366.444 381.63 371.119 376.624C375.793 371.618 379.22 365.58 381.12 359L326.05 322.1Z" fill="black"/>
</g>
<defs>
<clipPath id="clip0_48284_71589">
<rect width="500" height="500" fill="white"/>
</clipPath>
</defs>
</svg>
